X:467
T:Reel 467
M:4/4
K:Amaj
L:1/8
D| (3CB,A, EC FDEC|B,D=GD B,=G,G,B,| (3CB,A, EC FDEC|DFED CA,A,:|d|cABd cABG|Acde cdBd|cABd cABG|AFED CA,A,d|cABd cABG|AcBd cABG|A2ec dcdB|cABG AAE|
